profile/logo.svg

<svg xmlns="http://www.w3.org/2000/svg" viewBox="0 0 1000 1000">
  <metadata>
    Copyright 2023–Today (c) Detra (https://github.com/detra-lab). All rights reserved.
  </metadata>

  <style>
    :root {
      --foreground: #313437;
    }

    @media (prefers-color-scheme: dark) {
      :root {
        --foreground: #F5F5F5;
      }
    }
  </style>

  <g id="monogram">
    <path fill="#5052B0" d="M490 174H340v400h150c110.457 0 200-89.543 200-200s-89.543-200-200-200Z"/>
    <path fill="url(#top)" opacity=".8" d="M564.724 299c34.443 0 67.082 10.273 96.281 28.642C676.971 337.687 688.497 353.5 690 373c0 .111 0 .222-.001.333v.001c.001.222.001.444.001.666 0 110.457-89.741 200-200.441 200H340c9.549-153.988 106.514-275 224.724-275Z"/>
    <path fill="url(#bottom)" opacity=".4" d="M564.724 449c34.443 0 67.082-10.273 96.281-28.642C676.971 410.313 688.497 394.5 690 375c0-.111 0-.222-.001-.333v-.001c.001-.222.001-.444.001-.666 0-110.457-89.741-200-200.441-200H340c9.549 153.988 106.514 275 224.724 275Z"/>
    <defs>
      <linearGradient id="top" x1="340" x2="690" y1="574" y2="374" gradientUnits="userSpaceOnUse">
        <stop stop-color="#80FFDB"/>
        <stop offset="1" stop-color="#C2FFEE"/>
      </linearGradient>
      <linearGradient id="bottom" x1="340" x2="690" y1="174" y2="374" gradientUnits="userSpaceOnUse">
        <stop stop-color="#fff"/>
        <stop offset="1" stop-color="#EBFFF9"/>
      </linearGradient>
    </defs>
  </g>

  <g id="logotype">
    <path fill="var(--foreground)" d="M291 715.75V648h27v175h-27v-18c-10.25 14.25-24.75 21.25-43.75 21.25-17.25 0-31.75-6.25-44-19S185 778.75 185 760.5c0-18.5 6-34 18.25-46.75s26.75-19 44-19c19 0 33.5 7 43.75 21Zm-67.75 73.5c7.5 7.5 17 11.25 28.25 11.25s20.75-3.75 28.25-11.25C287.25 781.5 291 772 291 760.5s-3.75-21-11.25-28.5c-7.5-7.75-17-11.5-28.25-11.5s-20.75 3.75-28.25 11.5c-7.5 7.5-11.25 17-11.25 28.5s3.75 21 11.25 28.75ZM465.221 772h-99.5c4 19 19.25 29.5 40 29.5 14.25 0 25-5.25 32.25-15.5l22.25 13c-12.25 18.25-30.5 27.25-54.75 27.25-20.25 0-36.75-6.25-49.25-18.5-12.5-12.5-18.75-28.25-18.75-47.25 0-18.75 6.25-34.25 18.5-46.75 12.25-12.75 28.25-19 47.5-19 18.25 0 33.25 6.5 45 19.25s17.75 28.5 17.75 46.75c0 2.75-.25 6.5-1 11.25Zm-99.75-22h73.5c-3.75-20.25-18-30.75-35.75-30.75-20 0-34 11.75-37.75 30.75ZM550.822 698v26h-31v60c0 16 10.5 15.75 31 14.75V823c-41.25 5-58-6.25-58-39v-60h-23v-26h23v-27l27-8v35h31ZM598.531 698v21c6.75-15.5 19.75-23.25 38.5-23.25V725c-10.25-.75-19.25 1.75-27 7.5-7.75 5.5-11.5 14.75-11.5 27.5v63h-27V698h27ZM745.121 715.75V698h27v125h-27v-18c-10.25 14.25-24.75 21.25-43.75 21.25-17.25 0-31.75-6.25-44-19s-18.25-28.5-18.25-46.75c0-18.5 6-34 18.25-46.75s26.75-19 44-19c19 0 33.5 7 43.75 21Zm-67.75 73.5c7.5 7.5 17 11.25 28.25 11.25s20.75-3.75 28.25-11.25c7.5-7.75 11.25-17.25 11.25-28.75s-3.75-21-11.25-28.5c-7.5-7.75-17-11.5-28.25-11.5s-20.75 3.75-28.25 11.5c-7.5 7.5-11.25 17-11.25 28.5s3.75 21 11.25 28.75Z"/>
  </g>
</svg>

<svg xmlns="http://www.w3.org/2000/svg" viewBox="0 0 1000 1000">
  <style>
    :root {
      --foreground: #313437;
    }
    @media (prefers-color-scheme: dark) {
      :root {
        --foreground: #F5F5F5;
      }
    }
  </style>
  <g id="logo">
    <g id="monogram">
      <path fill="#5055D9" d="M490 174H340V574H490C600.457 574 690 484.457 690 374C690 263.543 600.457 174 490 174Z" />
      <path fill="url(#leaf-top)" opacity="0.8"
        d="M564.724 299C599.167 299 631.806 309.273 661.005 327.642C676.971 337.687 688.497 353.5 690 373C690 373.111 690 373.222 689.999 373.333V373.334C690 373.556 690 373.778 690 374C690 484.457 600.259 574 489.559 574H340C349.549 420.012 446.514 299 564.724 299Z" />
      <path fill="url(#leaf-bottom)" opacity="0.4"
        d="M564.724 449C599.167 449 631.806 438.727 661.005 420.358C676.971 410.313 688.497 394.5 690 375C690 374.889 690 374.778 689.999 374.667V374.666C690 374.444 690 374.222 690 374C690 263.543 600.259 174 489.559 174H340C349.549 327.988 446.514 449 564.724 449Z" />
    </g>
    <g id="logotype" fill="var(--foreground)">
      <path
        d="M291 715.75V648H318V823H291V805C280.75 819.25 266.25 826.25 247.25 826.25C230 826.25 215.5 820 203.25 807.25C191 794.5 185 778.75 185 760.5C185 742 191 726.5 203.25 713.75C215.5 701 230 694.75 247.25 694.75C266.25 694.75 280.75 701.75 291 715.75ZM223.25 789.25C230.75 796.75 240.25 800.5 251.5 800.5C262.75 800.5 272.25 796.75 279.75 789.25C287.25 781.5 291 772 291 760.5C291 749 287.25 739.5 279.75 732C272.25 724.25 262.75 720.5 251.5 720.5C240.25 720.5 230.75 724.25 223.25 732C215.75 739.5 212 749 212 760.5C212 772 215.75 781.5 223.25 789.25Z" />
      <path
        d="M465.221 772H365.721C369.721 791 384.971 801.5 405.721 801.5C419.971 801.5 430.721 796.25 437.971 786L460.221 799C447.971 817.25 429.721 826.25 405.471 826.25C385.221 826.25 368.721 820 356.221 807.75C343.721 795.25 337.471 779.5 337.471 760.5C337.471 741.75 343.721 726.25 355.971 713.75C368.221 701 384.221 694.75 403.471 694.75C421.721 694.75 436.721 701.25 448.471 714C460.221 726.75 466.221 742.5 466.221 760.75C466.221 763.5 465.971 767.25 465.221 772ZM365.471 750H438.971C435.221 729.75 420.971 719.25 403.221 719.25C383.221 719.25 369.221 731 365.471 750Z" />
      <path
        d="M550.822 698V724H519.822V784C519.822 800 530.322 799.75 550.822 798.75V823C509.572 828 492.822 816.75 492.822 784V724H469.822V698H492.822V671L519.822 663V698H550.822Z" />
      <path
        d="M598.531 698V719C605.281 703.5 618.281 695.75 637.031 695.75V725C626.781 724.25 617.781 726.75 610.031 732.5C602.281 738 598.531 747.25 598.531 760V823H571.531V698H598.531Z" />
      <path
        d="M745.121 715.75V698H772.121V823H745.121V805C734.871 819.25 720.371 826.25 701.371 826.25C684.121 826.25 669.621 820 657.371 807.25C645.121 794.5 639.121 778.75 639.121 760.5C639.121 742 645.121 726.5 657.371 713.75C669.621 701 684.121 694.75 701.371 694.75C720.371 694.75 734.871 701.75 745.121 715.75ZM677.371 789.25C684.871 796.75 694.371 800.5 705.621 800.5C716.871 800.5 726.371 796.75 733.871 789.25C741.371 781.5 745.121 772 745.121 760.5C745.121 749 741.371 739.5 733.871 732C726.371 724.25 716.871 720.5 705.621 720.5C694.371 720.5 684.871 724.25 677.371 732C669.871 739.5 666.121 749 666.121 760.5C666.121 772 669.871 781.5 677.371 789.25Z" />
    </g>
  </g>
  <defs>
    <linearGradient id="leaf-top" x1="340" y1="574" x2="690" y2="374" gradientUnits="userSpaceOnUse">
      <stop stop-color="#80FFDB" />
      <stop stop-color="#FFFFFF" offset="1" />
    </linearGradient>
    <linearGradient id="leaf-bottom" x1="340" y1="174" x2="690" y2="374" gradientUnits="userSpaceOnUse">
      <stop stop-color="#EBFFF9" />
      <stop stop-color="#FFFFFF" offset="1" />
    </linearGradient>
  </defs>
</svg>
